frontend/public/svg/e-commerce/offer.svg

<svg width="135" height="114" viewBox="0 0 135 114" fill="none" xmlns="http://www.w3.org/2000/svg">
<path d="M68.2518 22.6327C68.5019 22.0263 68.6574 21.8246 68.6554 21.6251C68.622 17.7245 69.086 17.1575 73.0378 17.1778C75.0672 17.1361 77.0277 16.4336 78.6213 15.1768C80.5404 13.8228 81.433 12.0479 81.0136 9.67064C80.8213 8.9131 80.7577 8.12844 80.8253 7.34977C81.3287 4.43695 84.7127 2.84528 86.9837 4.75391C89.6136 6.96443 92.4313 6.43306 95.2837 6.19349C96.0667 6.11998 96.8195 5.85303 97.4733 5.41665C98.1276 4.98028 98.6632 4.3881 99.0321 3.69345C101.671 -0.589153 104.727 -0.747331 107.587 3.33772C109.61 6.2256 112.711 6.2722 115.595 6.97513C116.675 7.23766 117.838 7.17203 118.915 7.44113C121.531 8.09747 122.227 9.01942 122.366 11.6743C122.567 15.5001 123.185 16.2458 126.859 17.0695C127.954 17.315 129.073 17.4731 130.148 17.7836C133.33 18.7024 134.5 21.4006 132.993 24.3364C132.674 25.0563 132.218 25.7077 131.652 26.2544C129.256 28.2549 129.432 30.6519 130.244 33.2982C130.68 34.5527 130.857 35.8826 130.763 37.2074C130.501 39.3864 129.638 40.0092 127.442 40.3006C125.333 40.5802 125.333 40.5803 124.21 41.5937C125.036 47.3853 125.943 53.0088 126.614 58.6585C127.326 64.6601 127.9 70.6827 128.374 76.7079C128.743 81.3981 128.838 94.0588 129.103 98.7608C129.388 103.83 127.15 106.129 122.665 108.376C118.296 110.47 113.523 111.588 108.678 111.654C97.3564 112.048 86.0261 112.184 74.6997 112.409C62.6985 112.648 50.6967 112.845 38.6962 113.106C30.8497 113.276 23.0059 113.64 15.1594 113.71C8.09522 113.776 4.95393 111.168 3.27961 104.313C1.84289 98.4208 0.818442 85.7325 0.752808 79.6384C0.628104 67.9766 0.370691 56.3158 0.293243 44.6553C0.290369 41.18 0.490103 37.7078 0.891254 34.2558C1.62307 27.6301 5.59716 24.4507 12.3239 23.7707C29.7956 22.0045 47.3068 22.8577 64.7962 22.6365C66.0058 22.6188 67.2102 22.6327 68.2518 22.6327ZM116.612 53.7043C112.528 52.62 110.246 53.4332 107.723 56.9984C104.871 61.0323 101.409 60.8978 98.9697 57.4894C98.5142 56.8294 97.8493 56.3428 97.0821 56.1092C96.3148 55.8754 95.4918 55.9084 94.7455 56.2024C93.5667 56.6123 92.4648 57.2175 91.4868 57.9929C89.947 59.3712 88.3429 60.189 86.3017 59.6193C84.1174 59.0096 84.1877 56.9757 83.7355 55.283C83.3732 53.9276 82.9662 52.584 82.4346 50.7338C80.6277 51.6146 79.2277 52.2126 77.9118 52.9589C76.2506 53.902 74.6511 53.8915 73.2183 52.6845C72.5423 52.1658 72.0585 51.4365 71.8426 50.612C71.6273 49.7875 71.693 48.9147 72.029 48.1315C72.4123 47.0814 72.7215 45.9968 73.1002 44.9414C73.471 44.0788 73.6042 43.1326 73.4861 42.201C73.3679 41.2695 73.003 40.3865 72.4287 39.6436C70.4958 40.0059 68.4185 40.0702 66.9903 38.2903C65.4985 36.4302 66.3766 34.335 67.0382 32.116C49.5856 32.3831 32.4059 31.5253 15.0884 33.3427C14.0575 33.4382 13.0957 33.9034 12.3807 34.6522C11.6656 35.4011 11.2455 36.383 11.1977 37.4173V37.4529C10.9647 47.6261 10.6825 57.7992 10.607 67.9773C10.5537 73.5253 10.7857 79.072 11.3021 84.5957C11.5548 87.2375 11.7832 92.9056 12.4783 97.4652C12.7166 98.9794 13.4956 100.356 14.6713 101.34C15.847 102.324 17.3395 102.849 18.8723 102.816H18.9228C31.0335 102.593 43.1416 102.255 55.2543 102.153C72.2029 102.01 89.1542 102.107 106.103 101.945C109.435 101.913 112.774 101.249 116.083 100.709C117.036 100.551 117.896 100.043 118.494 99.2846C119.092 98.5259 119.386 97.5722 119.319 96.6087C118.41 83.6336 117.515 65.7881 116.612 53.7043ZM91.1521 48.0415C94.8814 46.5247 98.3718 46.4262 101.862 47.9213C102.181 48.0065 102.515 48.0229 102.841 47.969C103.168 47.9151 103.478 47.7923 103.753 47.6088C106.905 45.3534 110.62 44.0133 114.486 43.7365C115.086 39.2032 117.172 35.7497 120.38 33.7603V25.2279C118.678 23.7243 116.942 22.5782 115.738 21.0207C114.472 19.3798 113.714 17.351 112.725 15.4752C110.62 14.8556 108.328 14.5073 106.359 13.5215C103.783 12.2351 101.464 11.5137 98.8765 13.3482C98.1795 13.7149 97.4076 13.9158 96.62 13.9349C93.8634 14.2834 91.1015 14.5741 88.1224 14.9114C86.517 19.1186 82.9249 21.4015 79.3853 23.3128C78.7591 26.3706 78.1835 29.1849 77.56 32.2317C81.2026 34.5794 81.8058 38.487 82.1327 42.576C86.0956 42.9672 89.4108 44.1474 91.1521 48.0415Z" fill="black"/>
<path d="M40.3419 58.9184C49.6455 58.9184 58.9504 58.8486 68.2522 58.9668C70.6006 59.0564 72.9306 59.4141 75.1983 60.0327C77.4397 60.5893 78.5331 62.1658 78.5121 64.1079C78.5115 65.1342 78.1406 66.1259 77.4679 66.9004C76.7945 67.6755 75.8645 68.1809 74.8484 68.324C72.9799 68.6994 71.0811 68.9049 69.1757 68.9364C61.556 69.0302 53.9354 69.0237 46.3159 69.0532C43.0579 69.0657 39.7971 68.9967 36.543 69.1057C32.7362 69.233 28.9361 69.5874 25.1293 69.6964C23.4598 69.7883 21.786 69.6216 20.1674 69.2028C19.248 68.9114 18.4503 68.326 17.8977 67.5357C17.3452 66.7448 17.0689 65.7945 17.1115 64.8312C17.2887 63.0591 18.3946 61.7464 20.6458 61.3034C23.9407 60.6504 27.2748 60.1221 30.6136 59.7814C33.8428 59.4533 37.1029 59.4361 40.3492 59.2818C40.3472 59.1597 40.3446 59.0365 40.3419 58.9184Z" fill="black"/>
<path d="M37.6565 52.507C32.6283 52.2313 27.5995 51.9734 22.574 51.661C21.8087 51.6137 20.8261 51.5447 20.3528 51.0748C19.5462 50.2734 18.5671 49.1368 18.5855 48.1575C18.6038 47.1782 19.6027 46.0388 20.4671 45.3261C21.067 44.8318 22.1612 44.8362 23.042 44.8008C29.4203 44.5383 35.8005 44.3415 42.1788 44.0842C43.6293 44.0264 45.0752 43.8381 46.5224 43.7022C46.9637 43.6284 47.4083 43.5765 47.8548 43.5471C50.7427 43.5655 53.1711 45.3133 53.3817 47.4983C53.5786 49.525 52.1053 51.0655 49.0632 51.8433C47.9682 52.0583 46.8607 52.2035 45.7473 52.2779C45.6352 52.2859 45.5227 52.2869 45.4105 52.2811H37.6697L37.6565 52.507Z" fill="black"/>
<path d="M92.8217 84.2211C89.712 83.9401 86.5951 83.719 83.4978 83.3383C82.6098 83.2667 81.7795 82.8723 81.1632 82.2291C80.5725 81.4165 80.052 80.1242 80.2929 79.2585C80.5305 78.4052 81.6528 77.5619 82.577 77.2022C83.6842 76.771 84.9897 76.8182 86.2137 76.727C90.7805 76.385 95.3473 76.0346 99.9194 75.7766C100.923 75.7825 101.921 75.9236 102.888 76.1947C103.617 76.3201 104.278 76.7014 104.751 77.2711C105.223 77.8408 105.477 78.5601 105.465 79.2998C105.56 81.0267 104.841 82.443 103.129 82.9622C101.528 83.4472 99.882 83.7682 98.2162 83.9205C96.4388 84.0819 94.6359 83.9579 92.8434 83.9579L92.8217 84.2211Z" fill="black"/>
<path d="M89.9034 35.6755C90.2598 35.0513 90.6851 33.6676 91.6027 32.8117C95.3668 29.299 99.2405 25.9 103.173 22.577C104.076 21.9062 105.14 21.486 106.257 21.3588C106.952 21.2399 107.666 21.3134 108.321 21.5716C108.977 21.8298 109.549 22.2625 109.976 22.8231C110.402 23.3836 110.667 24.0506 110.741 24.7511C110.815 25.4515 110.696 26.1588 110.397 26.7964C109.821 28.0071 108.981 29.0733 107.939 29.9156C104.191 32.9393 100.341 35.8368 96.5022 38.747C95.8853 39.2313 95.1876 39.6032 94.4413 39.8452C92.0674 40.5495 89.8535 38.8122 89.9034 35.6755Z" fill="black"/>
<path d="M97.2782 21.7606C97.3687 23.9751 95.0013 26.5262 92.8807 26.4954C90.9537 26.4678 88.7418 24.2376 88.7175 22.2981C88.6893 20.0377 90.9655 17.354 92.9332 17.3271C94.9442 17.3002 97.1896 19.5934 97.2782 21.7606Z" fill="black"/>
<path d="M104.906 36.7858C104.747 34.5096 106.882 32.1758 109.224 32.0662C110.294 32.0733 111.323 32.4812 112.107 33.2093C112.892 33.9374 113.375 34.9327 113.462 35.9994C113.429 37.124 113.012 38.2034 112.28 39.0577C111.548 39.9119 110.545 40.4894 109.439 40.6937C108.882 40.7459 108.321 40.6852 107.789 40.5152C107.256 40.3453 106.763 40.0697 106.34 39.7048C105.917 39.3398 105.572 38.893 105.325 38.3914C105.079 37.8899 104.936 37.3438 104.906 36.7858Z" fill="black"/>
</svg>

<svg xmlns="http://www.w3.org/2000/svg" width="135" height="114" fill="none" viewBox="0 0 135 114"><path fill="#000" d="M68.252 22.633c.25-.607.405-.808.403-1.008-.033-3.9.431-4.468 4.383-4.447a9.33 9.33 0 0 0 5.583-2.001c1.92-1.354 2.812-3.13 2.393-5.506a7 7 0 0 1-.189-2.321c.504-2.913 3.888-4.505 6.159-2.596 2.63 2.21 5.447 1.68 8.3 1.44a4.74 4.74 0 0 0 3.748-2.5c2.639-4.283 5.695-4.441 8.555-.356 2.023 2.888 5.124 2.934 8.008 3.637 1.08.263 2.243.197 3.32.466 2.616.656 3.312 1.578 3.451 4.233.201 3.826.819 4.572 4.493 5.396 1.095.245 2.214.403 3.289.714 3.182.918 4.352 3.617 2.845 6.552a6.1 6.1 0 0 1-1.341 1.918c-2.396 2-2.22 4.398-1.408 7.044a9.8 9.8 0 0 1 .519 3.91c-.262 2.178-1.125 2.801-3.321 3.093-2.109.28-2.109.28-3.232 1.293.826 5.791 1.733 11.415 2.404 17.064a458 458 0 0 1 1.76 18.05c.369 4.69.464 17.35.729 22.053.285 5.069-1.953 7.368-6.438 9.615a33.4 33.4 0 0 1-13.987 3.278c-11.322.394-22.652.53-33.978.755-12.001.239-24.003.436-36.004.697-7.846.17-15.69.534-23.537.604-7.064.066-10.205-2.542-11.88-9.397C1.844 98.421.82 85.733.754 79.638.628 67.977.37 56.316.293 44.655a90 90 0 0 1 .598-10.4c.732-6.625 4.706-9.804 11.433-10.484 17.472-1.767 34.983-.913 52.472-1.134 1.21-.018 2.414-.004 3.456-.004m48.36 31.071c-4.084-1.084-6.366-.27-8.889 3.294-2.852 4.034-6.314 3.9-8.753.491a3.55 3.55 0 0 0-4.224-1.287 11.1 11.1 0 0 0-3.26 1.79c-1.539 1.38-3.143 2.197-5.184 1.627-2.185-.61-2.114-2.643-2.567-4.336-.362-1.355-.769-2.699-1.3-4.55-1.807.882-3.207 1.48-4.523 2.226-1.661.943-3.26.932-4.694-.275a3.84 3.84 0 0 1-1.189-4.552c.383-1.05.693-2.135 1.071-3.19a5.26 5.26 0 0 0-.671-5.298c-1.933.362-4.01.426-5.439-1.354-1.491-1.86-.613-3.955.048-6.174-17.452.267-34.632-.59-51.95 1.227a4.29 4.29 0 0 0-3.89 4.074v.036c-.233 10.173-.516 20.346-.591 30.524-.053 5.548.179 11.095.695 16.619.253 2.641.481 8.31 1.176 12.87a6.34 6.34 0 0 0 6.394 5.35h.05c12.112-.223 24.22-.561 36.332-.663 16.949-.143 33.9-.046 50.849-.208 3.332-.032 6.671-.696 9.98-1.236a3.88 3.88 0 0 0 3.236-4.1c-.909-12.975-1.804-30.82-2.707-42.905m-25.46-5.663c3.73-1.516 7.22-1.615 10.71-.12a2.33 2.33 0 0 0 1.891-.312 21.03 21.03 0 0 1 10.733-3.873c.6-4.533 2.686-7.986 5.894-9.976v-8.532c-1.702-1.504-3.438-2.65-4.642-4.207-1.266-1.641-2.024-3.67-3.013-5.546-2.105-.62-4.397-.968-6.366-1.953-2.576-1.287-4.895-2.008-7.483-.174a5.1 5.1 0 0 1-2.256.587c-2.757.348-5.519.64-8.498.976-1.605 4.208-5.197 6.49-8.737 8.402l-1.825 8.919c3.643 2.347 4.246 6.255 4.573 10.344 3.963.391 7.278 1.571 9.02 5.465"/><path fill="#000" d="M40.342 58.918c9.304 0 18.608-.07 27.91.049a31 31 0 0 1 6.946 1.066c2.242.556 3.335 2.133 3.314 4.075a4.26 4.26 0 0 1-3.664 4.216 31.4 31.4 0 0 1-5.672.612c-7.62.094-15.24.088-22.86.117-3.258.013-6.519-.056-9.773.053-3.807.127-7.607.481-11.414.59a16.3 16.3 0 0 1-4.962-.493 4.385 4.385 0 0 1-3.056-4.372c.178-1.772 1.284-3.085 3.535-3.528 3.295-.653 6.629-1.18 9.968-1.522 3.229-.328 6.489-.345 9.735-.5zm-2.685-6.411c-5.029-.276-10.057-.534-15.083-.846-.765-.047-1.748-.116-2.221-.586-.807-.802-1.786-1.938-1.768-2.918.019-.979 1.018-2.118 1.882-2.83.6-.495 1.694-.49 2.575-.526 6.378-.263 12.758-.46 19.137-.717 1.45-.058 2.896-.246 4.343-.382q.663-.11 1.333-.155c2.888.019 5.316 1.766 5.527 3.951.197 2.027-1.277 3.568-4.319 4.345q-1.644.322-3.316.435a3 3 0 0 1-.337.003h-7.74zm55.165 31.714c-3.11-.28-6.227-.502-9.324-.883a3.64 3.64 0 0 1-2.335-1.109c-.59-.812-1.111-2.105-.87-2.97.237-.854 1.36-1.697 2.284-2.057 1.107-.431 2.413-.384 3.637-.475 4.567-.342 9.133-.692 13.705-.95a11.2 11.2 0 0 1 2.969.418 3.106 3.106 0 0 1 2.577 3.105c.095 1.727-.624 3.143-2.336 3.662a24.7 24.7 0 0 1-4.913.959c-1.777.16-3.58.037-5.373.037zm-2.919-48.545c.357-.625.782-2.008 1.7-2.864 3.764-3.513 7.638-6.912 11.57-10.235a6.4 6.4 0 0 1 3.084-1.218 3.856 3.856 0 0 1 4.14 5.437 9 9 0 0 1-2.458 3.12c-3.748 3.023-7.598 5.92-11.437 8.831a6.7 6.7 0 0 1-2.06 1.098c-2.375.705-4.588-1.033-4.539-4.17m7.375-13.915c.09 2.215-2.277 4.766-4.397 4.735-1.927-.027-4.14-2.257-4.163-4.197-.029-2.26 2.248-4.944 4.215-4.97 2.011-.028 4.257 2.265 4.345 4.433m7.628 15.025c-.159-2.276 1.976-4.61 4.318-4.72A4.28 4.28 0 0 1 113.462 36a4.92 4.92 0 0 1-4.023 4.695 4.15 4.15 0 0 1-4.114-2.303 4.2 4.2 0 0 1-.419-1.605"/></svg>
